F[ERK2
CUT[ACH IN TRAUERN MUSS ICH LEBEN]
REG[Europa, Mitteleuropa, Deutschland, Hessen, Frankfurt]
KEY[E0722  16  F 3/4]
MEL[-5_-5_  1__.2_3_4_  3_2_1__
    3_4_  5_.36_5_4_3_  3__2__
    1_1_  6__.6_+1_6_  6_5_5__
    3_3_  5_4_4__5_54  3___
    1_1_  6__.6_+1_6_  6_5_5__
    3_3_  5_4_4__5_54  3___ //] >>
FCT[Liebes - Lied, Leid, Klage, Abschied]
